packages/rn-bitcoin-icons/svg/filled/qr-code.svg

<svg width="24" height="24" viewBox="0 0 24 24" fill="none" xmlns="http://www.w3.org/2000/svg">
<path fill-rule="evenodd" clip-rule="evenodd" d="M5 5H9.5V9.5H5V5ZM6.5 6.5V8H8V6.5H6.5Z" fill="black"/>
<path fill-rule="evenodd" clip-rule="evenodd" d="M14.4999 5H18.9999V9.5H14.4999V5ZM15.9999 6.5V8H17.4999V6.5H15.9999Z" fill="black"/>
<path fill-rule="evenodd" clip-rule="evenodd" d="M5 14.5H9.5V19H5V14.5ZM6.5 16V17.5H8V16H6.5Z" fill="black"/>
<rect x="5" y="11.25" width="1.5" height="1.5" fill="black"/>
<rect x="8" y="11.25" width="1.5" height="1.5" fill="black"/>
<rect x="11.1666" y="11.25" width="1.5" height="1.5" fill="black"/>
<rect x="11.1666" y="14.375" width="1.5" height="1.5" fill="black"/>
<rect x="11.1666" y="17.5" width="1.5" height="1.5" fill="black"/>
<rect x="11.1666" y="8.125" width="1.5" height="1.5" fill="black"/>
<rect x="11.1666" y="5" width="1.5" height="1.5" fill="black"/>
<rect x="14.3333" y="11.25" width="1.5" height="1.5" fill="black"/>
<rect x="17.4999" y="11.25" width="1.5" height="1.5" fill="black"/>
<rect x="14.3333" y="14.375" width="1.5" height="1.5" fill="black"/>
<rect x="17.4999" y="14.375" width="1.5" height="1.5" fill="black"/>
<rect x="14.3333" y="17.5" width="1.5" height="1.5" fill="black"/>
<rect x="17.4999" y="17.5" width="1.5" height="1.5" fill="black"/>
</svg>

<svg xmlns="http://www.w3.org/2000/svg" viewBox="0 0 24 24" fill="currentColor">
  <path fill-rule="evenodd" d="M5 5h4.5v4.5H5V5zm1.5 1.5V8H8V6.5H6.5zM14.5 5H19v4.5h-4.5V5zM16 6.5V8h1.5V6.5H16zM5 14.5h4.5V19H5v-4.5zM6.5 16v1.5H8V16H6.5z" clip-rule="evenodd"/>
  <path d="M5 11.25h1.5v1.5H5zM8 11.25h1.5v1.5H8zM11.167 11.25h1.5v1.5h-1.5zM11.167 14.375h1.5v1.5h-1.5zM11.167 17.5h1.5V19h-1.5zM11.167 8.125h1.5v1.5h-1.5zM11.167 5h1.5v1.5h-1.5zM14.333 11.25h1.5v1.5h-1.5zM17.5 11.25H19v1.5h-1.5zM14.333 14.375h1.5v1.5h-1.5zM17.5 14.375H19v1.5h-1.5zM14.333 17.5h1.5V19h-1.5zM17.5 17.5H19V19h-1.5z"/>
</svg>
